X:38
T:no name
R:highland
S:Dermot and Tara Diamond
Z:id:hn-hf-38
M:C|
L:1/8
K:Ador
gfg | e<ABA GABd | e<AAG Agfg | e<ABA GABd |1 (3efe dB A :|2 (3efe dB A4 ||
|: e<aag abge | dBGA BG (3Bcd | (3efg fa gfgd |1 (3efg dB ABcd :|2 (3efg dB A ||

